X: 1
T: Spring Lightness
M: 4/4
L: 1/4
Q: 1/4=120
K: C
V:1
%%MIDI gchord b2b2
%%MIDI program 1
%%MIDI chordprog 49
%%MIDI bassprog 45
| "C" G2 E2 | "F" F3 G | "G" A2 B2 | "C" c2 c2 | % measure 1-4
%%MIDI program 1
%%MIDI chordprog 49
%%MIDI bassprog 45
| "Dm" d2 A>B | "G" G3 F | "C" E D E F | "C" G4 | % measure 5-8
%%MIDI program 1
%%MIDI chordprog 71
%%MIDI bassprog 45
| "Am" E2 A2 | "Dm" D3 E | "G" G A B G | "C" E4 | % measure 9-12
%%MIDI program 1
%%MIDI chordprog 49
%%MIDI bassprog 45
| "C" E D C E | "G" G2 A2 | "Dm" F3 D | "C" C4 | % measure 13-16